[Settings]
Encoding=ks_c_5601-1987
Title=
Source=
Memo=
[Channel1]
t160rv11l8c+rc+rdrerc+rc+rdrerc+rc+rerdrc+rc+rc+rc+rc+rc+rdrerc+rc+rdrerc+rc+rerdc+r2.rl16b>c+d+ef+8g+8eg+8f+e8f+8c-c+d+ef+8g+8>c+8.<ba8g+8c-c+d+ef+8g+8eg+8f+e8f+8c-d+ef+g+8c-d+ef+g+8cd+g+d+c-c+d+ef+8g+8eg+8f+e8f+8c-c+d+ef+8g+8>c+8.<ba8g+8c-c+d+ef+8g+8eg+8f+e8f+8c-d+ef+g+8c-d+ef+g+8cd+f+g+l8c+c+ec+ee4f+4f+eed+e4c+1&c+e4e4f+f+4rc+c+ec+ee4f+4f+eed+e4c+1&c+e4e4f+f+4e4ed+ee4ef+4ed+ec+4re4ed+ee4ef+4ef+g+g+4re4ed+ec+4re4ed+e<b4rg+g+>g+rc+c+g+rc+c+g+rg+4f+4rc-4r4c+d+ef+g+4r4f+ed+d+4e4rc+d+ef+g+4r4f+f+f+l4f+bg+f+r8g+g+f+8e8d+8d+ec+l8c+d+e4c+d+e4d+ef+4d+ef+4ef+l4g+g+g+g+bag+2l8&g+r2d+c+c-c+l16c-c+d+ef+8g+8eg+8f+e8f+8c-c+d+ef+8g+8>c+8.<ba8g+8c-c+d+ef+8g+8eg+8f+e8f+8c-d+ef+g+8c-d+ef+g+8cd+g+d+c-c+d+ef+8g+8eg+8f+e8f+8c-c+d+ef+8g+8>c+8.<ba8g+8c-c+d+ef+8g+8eg+8f+e8f+8c-d+ef+g+8c-d+ef+g+8cd+f+g+l8red+eeeef+4ed+ec+4re4ed+ee4ef+4ef+g+g+4re4ed+ec+4re4ed+e<b4rg+g+>g+rc+c+g+rc+c+g+rg+4f+4rc-4r4c+d+ef+g+4r4f+ed+d+4e4c+4c+d+e4c+d+e4d+ef+4d+ef+4ef+l4g+g+g+g+bag+2l8&g+r2d+c+c-c+l16c-c+d+ef+8g+8eg+8f+e8f+8c-c+d+ef+8g+8>c+8.<ba8g+8c-c+d+ef+8g+8eg+8f+e8f+8c-d+ef+g+8c-d+ef+g+8cd+g+d+c-c+d+ef+8g+8eg+8f+e8f+8c-c+d+ef+8g+8>c+8.<ba8g+8c-c+d+ef+8g+8eg+8f+e8f+8c-d+ef+g+8c-d+ef+g+8cd+f+g+>c+4
[Channel2]
t160r8v11o2c+c+c+c+c+c+c+c+c+c+c+c+c+c+c+c+l8c+g+c+g+c+g+c+g+c+g+c+g+c+g+c+g+c+g+c+g+c+g+c+g+c+rc+l16c+c+rc+c+rl8c+r<a>e<a>ac-f+c-f+c+g+c+g+c+g+c+g+<a>e<a>ac-f+c-f+ebebn20d+n20d+<a>e<a>ac-f+c-f+c+g+c+g+c+g+c+g+<a>e<a>ac-f+c-f+ebebn20d+n20d+c+g+c+g+c+g+c+g+ebebc-f+c-f+c+g+c+g+c+g+c+g+e4e4f+f+4.c+g+c+g+c+g+c+g+ebebc-f+c-f+c+g+c+g+c+g+c+g+e4e4f+f+4.<a>e<a>a<a>e<a>a<a>e<a>a<a>e<a>ac+g+c+g+c+g+c+g+c+g+c+g+c+4<b4f+n25f+n25f+n25f+n25g+n27g+n27g+n27g+n27a>e<a>a<a>e<a>ac-f+c-f+c-f+c-f+<b4r2.a>e<a>ac-f+c-f+c+g+c+g+c+g+c+g+<a>e<a>ac-f+c-f+ebebn20d+n20d+<a>e<a>ac-f+c-f+c+g+c+g+c+g+c+g+n18c+n18c+n18c+n18c+n20d+n20d+n20d+n20d+<a>e<a>a<a>e<a>ac-f+c-f+c-f+c-f+<b4r2.a>e<a>ac-f+c-f+c+g+c+g+c+g+c+g+<a>e<a>ac-f+c-f+ebebn20d+n20d+<a>e<a>ac-f+c-f+c+g+c+g+c+g+c+g+<a>e<a>ac-f+c-f+ebebn20d+n20d+<a>e<a>a<a>e<a>a<a>e<a>a<a>e<a>ac+g+c+g+c+g+c+g+c+g+c+g+c+4<b4f+n25f+n25f+n25f+n25g+n27g+n27g+n27g+n27a>e<a>a<a>e<a>ac-f+c-f+c-f+c-f+<b4r2.a>e<a>ac-f+c-f+c+g+c+g+c+g+c+g+n18c+n18c+n18c+n18c+n20d+n20d+n20d+n20d+<a>e<a>a<a>e<a>ac-f+c-f+c-f+c-f+<b4r2.a>e<a>ac-f+c-f+c+g+c+g+c+g+c+g+<a>e<a>ac-f+c-f+ebebn20d+n20d+<a>e<a>ac-f+c-f+c+g+c+g+c+g+c+g+<a>e<a>ac-f+c-f+ebebn20d+n20d+c+4
[3MLE EXTENSION]
/* DO NOT EDIT!! DATA VOID IF "3MLE EXTENSION" IS EDITED. */
c=2033349566
d=rgAAAN0a0+sBAAAAQlpoOTFBWSZTWV6mLtwAADN/2P7U0ATAADAAQAAEBGwIEAAABAADAEQAYKAAdBqZT1AAGmgMT0QZIjJoYg0A0A+FUGPpCmCKwHNarOgHtIoSRihM
d=oKIlk4LD0KzBllu0IA0mICrJxC4OV4eKcFOIgDSIgOZQmsrZzDDv/F3JFOFCQXqYu3A=
